build/images/icon-close.svg

<svg width="20" height="20" viewBox="0 0 20 20" fill="none" xmlns="http://www.w3.org/2000/svg">
<mask id="path-1-inside-1" fill="white">
<path d="M0.136192 0.136191C0.31778 -0.0453967 0.612192 -0.0453967 0.793779 0.136191L19.8638 19.2062C20.0454 19.3878 20.0454 19.6822 19.8638 19.8638C19.6822 20.0454 19.3878 20.0454 19.2062 19.8638L0.136192 0.793778C-0.0453958 0.61219 -0.0453955 0.317779 0.136192 0.136191Z"/>
<path d="M19.8638 0.136191C20.0454 0.317779 20.0454 0.61219 19.8638 0.793778L0.793778 19.8638C0.61219 20.0454 0.317778 20.0454 0.136191 19.8638C-0.0453969 19.6822 -0.0453969 19.3878 0.136191 19.2062L19.2062 0.136191C19.3878 -0.0453971 19.6822 -0.0453968 19.8638 0.136191Z"/>
</mask>
<path d="M0.136192 0.793778L0.843299 0.0866711L0.843299 0.0866711L0.136192 0.793778ZM19.2062 19.8638L18.4991 20.5709L18.4991 20.5709L19.2062 19.8638ZM19.8638 19.2062L20.5709 18.4991L19.8638 19.2062ZM0.793779 0.136191L0.0866727 0.843298L0.793779 0.136191ZM19.2062 0.136191L19.9133 0.843297L19.2062 0.136191ZM0.136191 19.2062L-0.570916 18.4991L0.136191 19.2062ZM0.793778 19.8638L0.0866709 19.1567L0.0866709 19.1567L0.793778 19.8638ZM19.8638 0.793778L20.5709 1.50089L20.5709 1.50088L19.8638 0.793778ZM0.0866727 0.843298L19.1567 19.9133L20.5709 18.4991L1.50089 -0.570916L0.0866727 0.843298ZM19.9133 19.1567L0.843299 0.0866711L-0.570915 1.50088L18.4991 20.5709L19.9133 19.1567ZM0.843299 0.0866711C1.05224 0.295609 1.05223 0.634362 0.843299 0.843298L-0.570915 -0.570916C-1.14303 0.00119525 -1.14303 0.928772 -0.570915 1.50088L0.843299 0.0866711ZM19.1567 19.1567C19.3656 18.9478 19.7044 18.9478 19.9133 19.1567L18.4991 20.5709C19.0712 21.143 19.9988 21.143 20.5709 20.5709L19.1567 19.1567ZM19.1567 19.9133C18.9478 19.7044 18.9478 19.3656 19.1567 19.1567L20.5709 20.5709C21.143 19.9988 21.143 19.0712 20.5709 18.4991L19.1567 19.9133ZM1.50089 -0.570916C0.928774 -1.14303 0.00119745 -1.14303 -0.570915 -0.570916L0.843299 0.843298C0.634362 1.05223 0.295609 1.05223 0.0866727 0.843298L1.50089 -0.570916ZM19.1567 0.0866714L0.0866709 19.1567L1.50088 20.5709L20.5709 1.50089L19.1567 0.0866714ZM0.843298 19.9133L19.9133 0.843297L18.4991 -0.570916L-0.570916 18.4991L0.843298 19.9133ZM19.9133 0.843297C19.7044 1.05223 19.3656 1.05223 19.1567 0.843298L20.5709 -0.570916C19.9988 -1.14303 19.0712 -1.14303 18.4991 -0.570916L19.9133 0.843297ZM0.843298 19.1567C1.05223 19.3656 1.05223 19.7044 0.843298 19.9133L-0.570916 18.4991C-1.14303 19.0712 -1.14303 19.9988 -0.570916 20.5709L0.843298 19.1567ZM0.0866709 19.1567C0.295607 18.9478 0.634361 18.9478 0.843298 19.1567L-0.570916 20.5709C0.00119596 21.143 0.928772 21.143 1.50088 20.5709L0.0866709 19.1567ZM20.5709 1.50088C21.143 0.928773 21.143 0.00119611 20.5709 -0.570916L19.1567 0.843298C18.9478 0.634361 18.9478 0.295608 19.1567 0.0866714L20.5709 1.50088Z" fill="#025BB1" mask="url(#path-1-inside-1)"/>
</svg>

<svg width="20" height="20" fill="none" xmlns="http://www.w3.org/2000/svg"><mask id="a" fill="#fff"><path d="M.136.136a.465.465 0 01.658 0l19.07 19.07a.465.465 0 11-.658.658L.136.794a.465.465 0 010-.658z"/><path d="M19.864.136a.465.465 0 010 .658L.794 19.864a.465.465 0 11-.658-.658L19.206.136a.465.465 0 01.658 0z"/></mask><path d="M.136.794L.843.087.136.794zm19.07 19.07l-.707.707.707-.707zm.658-.658l.707-.707-.707.707zM.794.136L.087.843.794.136zm18.412 0l.707.707-.707-.707zM.136 19.206L-.57 18.5l.707.707zm.658.658l-.707-.707.707.707zM19.864.794l.707.707-.707-.707zM.087.844l19.07 19.07 1.414-1.415L1.5-.57.087.843zm19.826 18.313L.843.087-.57 1.5 18.5 20.57l1.414-1.414zM.843.087a.535.535 0 010 .756L-.57-.57a1.465 1.465 0 000 2.072L.843.087zm18.314 19.07a.535.535 0 01.756 0L18.5 20.57c.572.572 1.5.572 2.072 0l-1.414-1.414zm0 .756a.535.535 0 010-.756l1.414 1.414c.572-.572.572-1.5 0-2.072l-1.414 1.414zM1.5-.57a1.465 1.465 0 00-2.072 0L.843.843a.535.535 0 01-.756 0L1.5-.57zm17.656.658L.087 19.157 1.5 20.57 20.57 1.5 19.157.087zM.843 19.913L19.913.843 18.5-.57-.57 18.5l1.414 1.414zM19.913.843a.535.535 0 01-.756 0L20.57-.57a1.465 1.465 0 00-2.072 0L19.913.843zM.843 19.157a.535.535 0 010 .756L-.57 18.5a1.465 1.465 0 000 2.072l1.414-1.414zm-.756 0a.535.535 0 01.756 0L-.57 20.57c.572.572 1.5.572 2.072 0L.087 19.157zM20.57 1.5c.572-.572.572-1.5 0-2.072L19.157.843a.535.535 0 010-.756L20.57 1.5z" fill="#025BB1" mask="url(#a)"/></svg>
